assets/features/channel/east-asia/line-pay.svg

<svg width="80" height="80" viewBox="0 0 80 80" fill="none" xmlns="http://www.w3.org/2000/svg">
<rect x="0.5" y="0.5" width="79" height="79" rx="7.5" stroke="#EEEEEE"/>
<path d="M33.7532 15.6006H31.6911C31.3744 15.6006 31.1177 15.8574 31.1177 16.1742V29.0149C31.1177 29.3317 31.3744 29.5885 31.6911 29.5885H33.7532C34.0699 29.5885 34.3266 29.3317 34.3266 29.0149V16.1742C34.3266 15.8574 34.0699 15.6006 33.7532 15.6006Z" fill="black"/>
<path d="M28.7677 26.3783H23.2089V16.1742C23.2089 15.8582 22.9514 15.6006 22.6355 15.6006H20.5734C20.2575 15.6006 20 15.856 20 16.1742V29.0149C20 29.3309 20.2575 29.5885 20.5734 29.5885H28.7677C29.0836 29.5885 29.3411 29.3309 29.3411 29.0149V26.952C29.3411 26.6359 29.0836 26.3783 28.7677 26.3783Z" fill="black"/>
<path d="M59.4264 18.8108C59.7423 18.8108 59.9998 18.5532 59.9998 18.2371V16.1742C59.9998 15.8582 59.7423 15.6006 59.4264 15.6006H51.2321C50.9162 15.6006 50.6587 15.8582 50.6587 16.1742V29.0149C50.6587 29.3309 50.9162 29.5885 51.2321 29.5885H59.4264C59.7423 29.5885 59.9998 29.3309 59.9998 29.0149V26.952C59.9998 26.6359 59.7423 26.3783 59.4264 26.3783H53.8676V24.2007H59.4264C59.7423 24.2007 59.9998 23.9431 59.9998 23.6271V21.5642C59.9998 21.2481 59.7423 20.9905 59.4264 20.9905H53.8676V18.8129H59.4264V18.8108Z" fill="black"/>
<path d="M47.9086 15.6008H45.8465C45.5306 15.6008 45.2731 15.8584 45.2731 16.1744V23.6057L39.8744 15.8844C39.7208 15.6658 39.4936 15.603 39.2404 15.603C39.208 15.5965 39.1755 15.603 39.1431 15.603H37.081C36.7651 15.603 36.5076 15.8606 36.5076 16.1766V29.0173C36.5076 29.3333 36.7651 29.5909 37.081 29.5909H39.1431C39.459 29.5909 39.7165 29.3333 39.7165 29.0173V21.257L45.3445 29.3095C45.364 29.3376 45.3878 29.3636 45.4094 29.3896C45.5068 29.5043 45.6475 29.5822 45.8054 29.5931H47.9086C48.2245 29.5931 48.482 29.3355 48.482 29.0194V16.1744C48.482 15.8584 48.2245 15.6008 47.9086 15.6008Z" fill="black"/>
<path d="M58.5453 39.1929H21.4547C20.6513 39.1929 20 39.8444 20 40.6481V62.8377C20 63.6415 20.6513 64.293 21.4547 64.293H58.5453C59.3487 64.293 60 63.6415 60 62.8377V40.6481C60 39.8444 59.3487 39.1929 58.5453 39.1929Z" fill="#08BF5B"/>
<path d="M34.4218 48.9821C34.4218 51.187 32.6485 52.961 30.3609 52.961H28.6206V56.2189C28.6206 56.4343 28.4448 56.6102 28.2294 56.6102H26.3594C26.1441 56.6102 25.9683 56.4343 25.9683 56.2189V45.3923C25.9683 45.1768 26.1441 45.001 26.3594 45.001H30.3609C32.6485 45.001 34.4218 46.775 34.4218 48.9799V48.9821ZM31.7695 48.9821C31.7695 48.1357 31.1718 47.4894 30.3609 47.4894H28.6206V50.4747H30.3609C31.174 50.4747 31.7695 49.8284 31.7695 48.9821Z" fill="white"/>
<path d="M44.2663 48.5254V56.404C44.2663 56.5184 44.174 56.6107 44.0598 56.6107H41.9854C41.8711 56.6107 41.7788 56.5184 41.7788 56.404V55.8303C41.2317 56.4612 40.4208 56.8415 39.3089 56.8415C37.1378 56.8415 35.3469 54.9356 35.3469 52.4647C35.3469 49.9938 37.1378 48.0879 39.3089 48.0879C40.4186 48.0879 41.2317 48.4682 41.7788 49.0991V48.5254C41.7788 48.411 41.8711 48.3187 41.9854 48.3187H44.0598C44.174 48.3187 44.2663 48.411 44.2663 48.5254ZM41.781 52.4647C41.781 51.2205 40.9526 50.4423 39.8077 50.4423C38.6629 50.4423 37.8344 51.2205 37.8344 52.4647C37.8344 53.7089 38.6629 54.4871 39.8077 54.4871C40.9526 54.4871 41.781 53.7089 41.781 52.4647Z" fill="white"/>
<path d="M52.5396 48.5335L50.6322 53.3412L48.6589 48.5292C48.6062 48.3995 48.4809 48.3159 48.3425 48.3159H46.2263C46.0791 48.3159 45.9802 48.4632 46.0352 48.5995L49.3269 56.6255L48.1271 59.6481C48.0744 59.7822 48.1733 59.9295 48.3183 59.9295H50.4344C50.5751 59.9295 50.7003 59.8438 50.7531 59.7141L55.1633 48.5973C55.2161 48.4632 55.1172 48.3159 54.9721 48.3159H52.856C52.7154 48.3159 52.5901 48.4017 52.5374 48.5314L52.5396 48.5335Z" fill="white"/>
</svg>

<svg xmlns="http://www.w3.org/2000/svg" width="80" height="80" fill="none" viewBox="0 0 80 80"><rect width="79" height="79" x=".5" y=".5" stroke="#eee" rx="7.5"/><path fill="#000" d="M33.753 15.6h-2.062a.573.573 0 0 0-.573.574v12.84c0 .318.256.575.573.575h2.062a.573.573 0 0 0 .574-.574v-12.84a.573.573 0 0 0-.574-.574m-4.985 10.777h-5.56V16.174a.575.575 0 0 0-.572-.573h-2.063a.573.573 0 0 0-.573.573v12.84c0 .317.258.575.573.575h8.195a.575.575 0 0 0 .573-.574v-2.063a.575.575 0 0 0-.573-.574m30.658-7.568a.575.575 0 0 0 .574-.573v-2.063a.575.575 0 0 0-.574-.573h-8.194a.575.575 0 0 0-.573.573v12.84c0 .317.257.575.573.575h8.194a.575.575 0 0 0 .574-.574v-2.063a.575.575 0 0 0-.574-.574h-5.558v-2.177h5.558a.575.575 0 0 0 .574-.574v-2.063a.575.575 0 0 0-.574-.573h-5.558v-2.178h5.558zM47.909 15.6h-2.062a.575.575 0 0 0-.574.574v7.432l-5.399-7.722c-.153-.218-.38-.281-.634-.281-.032-.006-.065 0-.097 0h-2.062a.575.575 0 0 0-.573.574v12.84c0 .316.257.574.573.574h2.062a.575.575 0 0 0 .574-.574v-7.76l5.627 8.052q.032.043.065.08a.57.57 0 0 0 .396.204h2.104a.575.575 0 0 0 .573-.574V16.174a.575.575 0 0 0-.573-.573"/><path fill="#08bf5b" d="M58.545 39.193h-37.09c-.804 0-1.455.651-1.455 1.455v22.19c0 .803.651 1.455 1.455 1.455h37.09c.804 0 1.455-.652 1.455-1.455v-22.19c0-.804-.651-1.455-1.455-1.455"/><path fill="#fff" d="M34.422 48.982c0 2.205-1.773 3.979-4.061 3.979h-1.74v3.258a.39.39 0 0 1-.392.391h-1.87a.39.39 0 0 1-.39-.391V45.392c0-.215.175-.391.39-.391h4.002c2.287 0 4.06 1.774 4.06 3.979zm-2.652 0c0-.846-.598-1.493-1.41-1.493h-1.74v2.986h1.74c.814 0 1.41-.647 1.41-1.493m12.496-.457v7.879a.206.206 0 0 1-.206.207h-2.075a.206.206 0 0 1-.206-.207v-.574c-.547.631-1.358 1.012-2.47 1.012-2.171 0-3.962-1.906-3.962-4.377s1.79-4.377 3.962-4.377c1.11 0 1.923.38 2.47 1.011v-.574c0-.114.092-.206.206-.206h2.075c.114 0 .206.092.206.206m-2.485 3.94c0-1.245-.828-2.023-1.973-2.023s-1.974.779-1.974 2.023.829 2.022 1.974 2.022 1.973-.778 1.973-2.022m10.759-3.931-1.908 4.807-1.973-4.812a.34.34 0 0 0-.316-.213h-2.117a.206.206 0 0 0-.19.283l3.29 8.027-1.199 3.022a.206.206 0 0 0 .191.281h2.116a.35.35 0 0 0 .32-.215l4.41-11.117a.206.206 0 0 0-.192-.281h-2.116a.34.34 0 0 0-.319.215z"/></svg>
